brandFactory_export/3.Masa/Pospago_3Masa.svg

<?xml version="1.0" encoding="UTF-8"?>
<svg width="24px" height="24px" viewBox="0 0 24 24" version="1.1" xmlns="http://www.w3.org/2000/svg" xmlns:xlink="http://www.w3.org/1999/xlink">
    <title>3.Masa/Pospago_3Masa</title>
    <g id="Symbols" stroke="none" stroke-width="1" fill="none" fill-rule="evenodd">
        <g id="3.Masa/Pospago_3Masa" fill="#5CB615" fill-rule="nonzero">
            <path d="M21.8319328,7.07226891 L18.5546218,3.79495798 C18.4302521,3.67058824 18.2588235,3.59663866 18.0806723,3.59663866 L17.7680672,3.59663866 C17.7142857,2.47058824 17.3915966,1.62352941 16.789916,1.01176471 C16.1142857,0.332773109 15.1462185,0 13.8285714,0 L5.96302521,0 C4.63193277,0 3.66386555,0.322689076 2.99831933,0.991596639 C2.33277311,1.6605042 2.01344538,2.62521008 2.01344538,3.94957983 L2.01344538,19.6806723 C2.01344538,21.0184874 2.3394958,21.9932773 3.00504202,22.6554622 C3.66722689,23.3109244 4.63529412,23.6302521 5.96302521,23.6302521 L13.8285714,23.6302521 C15.1563025,23.6302521 16.1243697,23.3109244 16.7865546,22.6554622 C17.4554622,21.9932773 17.7781513,21.0184874 17.7781513,19.6806723 L17.7781513,16.7394958 L20.9815126,16.7394958 C21.610084,16.7394958 22.0302521,16.3159664 22.0302521,15.687395 L22.0302521,7.54621849 C22.0302521,7.36806723 21.9596639,7.19663866 21.8319328,7.07226891 Z M20.0705882,7.21008403 L19.7277311,7.21008403 C19.2605042,7.21008403 18.9243697,7.11260504 18.7294118,6.91428571 C18.5344538,6.71596639 18.4336134,6.38319328 18.4336134,5.91596639 L18.4336134,5.57310924 L20.0705882,7.21008403 Z M13.5092437,15.3915966 L13.5092437,4.93781513 L17.0890756,4.93781513 L17.0890756,5.91260504 C17.0890756,7.58991597 18.0504202,8.5512605 19.7277311,8.5512605 L20.6857143,8.5512605 L20.6857143,15.3915966 C19.4184874,15.394958 14.7495798,15.394958 13.5092437,15.3915966 Z M19.5731092,9.8487395 C19.5731092,10.1277311 19.3478992,10.3529412 19.0689076,10.3529412 L15.1260504,10.3529412 C14.8470588,10.3529412 14.6218487,10.1277311 14.6218487,9.8487395 C14.6218487,9.5697479 14.8470588,9.34453782 15.1260504,9.34453782 L19.0689076,9.34453782 C19.3478992,9.34453782 19.5731092,9.5697479 19.5731092,9.8487395 Z M19.5731092,11.8151261 C19.5731092,12.0941176 19.3478992,12.3193277 19.0689076,12.3193277 L15.1260504,12.3193277 C14.8470588,12.3193277 14.6218487,12.0941176 14.6218487,11.8151261 C14.6218487,11.5361345 14.8470588,11.3109244 15.1260504,11.3109244 L19.0689076,11.3109244 C19.3478992,11.3109244 19.5731092,11.5361345 19.5731092,11.8151261 Z M19.5731092,13.7815126 C19.5731092,14.0605042 19.3478992,14.2857143 19.0689076,14.2857143 L15.1260504,14.2857143 C14.8470588,14.2857143 14.6218487,14.0605042 14.6218487,13.7815126 C14.6218487,13.502521 14.8470588,13.2773109 15.1260504,13.2773109 L19.0689076,13.2773109 C19.3478992,13.2773109 19.5731092,13.502521 19.5731092,13.7815126 Z M9.89579832,20.8302521 C9.48571429,20.8302521 9.14285714,20.702521 8.91092437,20.4638655 C8.6789916,20.2252101 8.56470588,19.8991597 8.56470588,19.492437 C8.56470588,18.6554622 9.06218487,18.1546218 9.89915966,18.1546218 C10.7361345,18.1546218 11.2336134,18.6554622 11.2336134,19.492437 C11.2336134,19.902521 11.1159664,20.2285714 10.887395,20.4638655 C10.6588235,20.6991597 10.3058824,20.8302521 9.89579832,20.8302521 L9.89579832,20.8302521 Z" id="Pospago_3Masa"></path>
        </g>
    </g>
</svg>

<svg width="24" height="24" viewBox="0 0 24 24" xmlns="http://www.w3.org/2000/svg"><path d="M21.832 7.072l-3.277-3.277a.675.675 0 00-.474-.198h-.313c-.054-1.126-.376-1.973-.978-2.585C16.114.332 15.146 0 13.829 0H5.963c-1.331 0-2.3.323-2.965.992s-.985 1.633-.985 2.958v15.73c0 1.338.326 2.313.992 2.975.662.656 1.63.975 2.958.975h7.866c1.327 0 2.295-.32 2.958-.975.668-.662.991-1.637.991-2.974v-2.942h3.204c.628 0 1.048-.423 1.048-1.052v-8.14a.66.66 0 00-.198-.475zm-1.761.138h-.343c-.467 0-.804-.097-.999-.296-.195-.198-.295-.53-.295-.998v-.343L20.07 7.21zm-6.562 8.182V4.938h3.58v.975c0 1.677.961 2.638 2.639 2.638h.958v6.84c-1.268.004-5.936.004-7.177 0zm6.064-5.543a.504.504 0 01-.504.504h-3.943a.504.504 0 110-1.008h3.943c.279 0 .504.225.504.504zm0 1.966a.504.504 0 01-.504.504h-3.943a.504.504 0 110-1.008h3.943c.279 0 .504.225.504.504zm0 1.967a.504.504 0 01-.504.504h-3.943a.504.504 0 110-1.009h3.943c.279 0 .504.226.504.505zM9.896 20.83c-.41 0-.753-.127-.985-.366-.232-.239-.346-.565-.346-.972 0-.837.497-1.337 1.334-1.337.837 0 1.335.5 1.335 1.337 0 .41-.118.737-.347.972-.228.235-.581.366-.991.366z" fill="#5CB615" fill-rule="nonzero"/></svg>
